public/images/diverse-chart-type.svg

<svg width="92" height="92" viewBox="0 0 92 92" fill="none" xmlns="http://www.w3.org/2000/svg">
<path d="M0 46C0 20.5949 20.5949 0 46 0C71.4051 0 92 20.5949 92 46C92 71.4051 71.4051 92 46 92C20.5949 92 0 71.4051 0 46Z" fill="#FFD7F6"/>
<path d="M35.6348 74.7857L31.4435 83.0204L28.7485 81.6487C27.4258 80.9964 26.5371 80.0675 26.0824 78.8621C25.6235 77.6651 25.7093 76.4677 26.3398 75.2701C26.9328 74.0638 27.8588 73.2837 29.1178 72.9295C30.3767 72.5754 31.6507 72.7369 32.9399 73.414L35.6348 74.7857ZM33.1757 75.4505L32.1776 74.9425C31.3458 74.5191 30.5555 74.4154 29.8068 74.6312C29.0539 74.8554 28.4763 75.3626 28.0741 76.1528C27.6677 76.9513 27.5976 77.7063 27.8638 78.4178C28.13 79.1293 28.6873 79.701 29.5357 80.1328L30.5339 80.6409L33.1757 75.4505Z" fill="#FF7CE2"/>
<path d="M26.676 69.5486L20.7108 76.6051L19.2675 75.3849L25.2327 68.3285L26.676 69.5486Z" fill="#FF7CE2"/>
<path d="M13.3141 68.8267L11.9943 67.1575L21.927 64.5512L22.3178 65.0454L17.4994 74.1201L16.1709 72.4398L19.131 67.1546L13.3141 68.8267Z" fill="#FF7CE2"/>
<path d="M18.7985 60.4107L10.3155 64.0735L7.85137 58.3668L9.41943 57.6897L11.1343 61.6613L12.8566 60.9176L11.5968 58L13.0749 57.3618L14.3347 60.2794L16.4812 59.3526L14.6997 55.2268L16.2677 54.5497L18.7985 60.4107Z" fill="#FF7CE2"/>
<path d="M14.7818 44.8295L15.0598 46.9392L12.1384 49.7388L12.3195 51.113L15.5535 50.6869L15.8004 52.5607L6.63958 53.7676L6.18605 50.3254C6.05925 49.363 6.22799 48.5359 6.69226 47.844C7.15652 47.1521 7.82819 46.7482 8.70726 46.6324C9.28097 46.5568 9.81805 46.632 10.3185 46.8579C10.8085 47.0757 11.2119 47.4227 11.5288 47.8987L14.7818 44.8295ZM8.04442 51.6762L10.6677 51.3306L10.4611 49.7621C10.4038 49.3272 10.239 49.0053 9.96672 48.7964C9.69322 48.5783 9.35752 48.4954 8.95962 48.5479C8.57098 48.5991 8.27344 48.7701 8.06698 49.0609C7.85931 49.3424 7.78291 49.6914 7.83777 50.1078L8.04442 51.6762Z" fill="#FF7CE2"/>
<path d="M13.0462 44.8522L12.2666 43.4212C13.2483 42.9055 13.8017 42.2229 13.9269 41.3734C13.9868 40.9672 13.9461 40.6357 13.8047 40.379C13.654 40.1209 13.4217 39.9687 13.1078 39.9225C12.8492 39.8844 12.6392 39.9336 12.4775 40.0701C12.3066 40.2053 12.081 40.4881 11.8006 40.9185L11.2124 41.8365C10.339 43.2173 9.35297 43.8266 8.25418 43.6647C7.47856 43.5503 6.89748 43.1722 6.51096 42.5303C6.1152 41.8871 5.98197 41.1269 6.11127 40.2497C6.21199 39.5664 6.45743 38.9893 6.84759 38.5185C7.22852 38.0464 7.70854 37.702 8.28764 37.4855L9.08318 38.9047C8.31202 39.2721 7.87539 39.8021 7.77331 40.4947C7.72432 40.8271 7.76265 41.111 7.88832 41.3465C8.01398 41.582 8.21532 41.7202 8.49232 41.761C8.72316 41.7951 8.92334 41.7491 9.09285 41.6231C9.2545 41.4866 9.4576 41.2288 9.70215 40.8497L10.3123 39.8783C10.7789 39.1452 11.2465 38.6292 11.7151 38.3303C12.1744 38.0301 12.7088 37.9249 13.3182 38.0148C14.14 38.1359 14.7606 38.534 15.18 39.209C15.5901 39.8827 15.7265 40.6858 15.589 41.6184C15.476 42.3848 15.1939 43.0508 14.7426 43.6164C14.2926 44.1727 13.7272 44.5846 13.0462 44.8522Z" fill="#FF7CE2"/>
<path d="M16.4532 36.3308L7.97023 32.6679L10.4344 26.9612L12.0024 27.6382L10.2875 31.6098L12.0098 32.3535L13.2696 29.4359L14.7477 30.0741L13.4879 32.9917L15.6344 33.9185L17.4159 29.7927L18.9839 30.4698L16.4532 36.3308Z" fill="#FF7CE2"/>
<path d="M18.2501 23.2296C17.327 22.2784 16.8984 21.1237 16.9643 19.7655C17.0238 18.4006 17.552 17.2671 18.5488 16.3651C19.1869 15.763 19.9048 15.368 20.7026 15.1799C21.5008 14.9786 22.2958 14.9984 23.0877 15.2393L22.7407 16.9525C21.5478 16.6537 20.5508 16.8822 19.7497 17.638C19.1252 18.2273 18.8044 18.9277 18.7874 19.7393C18.7772 20.5445 19.0731 21.2662 19.6752 21.9043C20.2773 22.5425 20.9773 22.8764 21.7753 22.9062C22.5802 22.9296 23.2948 22.6467 23.9194 22.0574C24.7205 21.3016 25.0065 20.3196 24.7776 19.1113L26.508 18.8645C26.7092 19.6626 26.6894 20.4577 26.4485 21.2495C26.2012 22.0346 25.7551 22.7314 25.1102 23.3399C24.145 24.289 22.9826 24.757 21.6229 24.7439C20.2635 24.7176 19.1393 24.2128 18.2501 23.2296Z" fill="#FF7CE2"/>
<path d="M28.7108 19.9072L24.7968 11.5371L26.5089 10.7365L28.0093 13.945L31.7124 12.2134L30.212 9.00485L31.9241 8.20426L35.8381 16.5743L34.126 17.3749L32.4359 13.7606L28.7328 15.4922L30.4229 19.1066L28.7108 19.9072Z" fill="#FF7CE2"/>
<path d="M42.9833 15.2155L42.2953 14.0999L38.5557 14.6511L38.2188 15.9178L36.2105 16.2138L38.9244 6.30412L39.5477 6.21225L44.9916 14.9194L42.9833 15.2155ZM41.4177 12.6585L39.7436 9.74949L38.9801 13.0178L41.4177 12.6585Z" fill="#FF7CE2"/>
<path d="M54.4842 16.0491L52.3745 15.7712L50.4271 12.2244L49.053 12.0434L48.6269 15.2774L46.7531 15.0305L47.96 5.8697L51.4023 6.32323C52.3646 6.45002 53.1198 6.82724 53.6679 7.45487C54.2159 8.0825 54.432 8.83585 54.3162 9.71492C54.2406 10.2886 54.0289 10.7879 53.6811 11.2128C53.3438 11.6296 52.9042 11.9294 52.3623 12.1122L54.4842 16.0491ZM49.6162 7.76831L49.2706 10.3916L50.839 10.5983C51.2739 10.6556 51.6275 10.5798 51.8998 10.3709C52.1814 10.1632 52.3483 9.86045 52.4008 9.46255C52.452 9.07391 52.3639 8.74223 52.1365 8.46751C51.9183 8.194 51.6011 8.02982 51.1847 7.97496L49.6162 7.76831Z" fill="#FF7CE2"/>
<path d="M56.8472 17.2695L59.7294 10.3107L57.0002 9.18035L57.6538 7.60234L64.8712 10.5917L64.2177 12.1697L61.4756 11.0339L58.5934 17.9927L56.8472 17.2695Z" fill="#FF7CE2"/>
<path d="M65.9173 22.8535L71.006 17.3005L68.8282 15.3047L69.9821 14.0455L75.7416 19.3234L74.5876 20.5826L72.3994 18.5774L67.3107 24.1304L65.9173 22.8535Z" fill="#FF7CE2"/>
<path d="M81.072 27.15L74.6483 27.5927L71.6136 29.6027L70.5699 28.027L73.593 26.0247L76.5109 20.2635L77.6705 22.0143L75.7411 25.7439L79.9201 25.4109L81.072 27.15Z" fill="#FF7CE2"/>
<path d="M73.6268 33.0824L82.3937 30.1639L83.4904 33.4582C83.797 34.3792 83.7878 35.2233 83.4628 35.9905C83.1379 36.7578 82.5547 37.2814 81.7135 37.5615C80.881 37.8386 80.1004 37.7689 79.3716 37.3525C78.6427 36.9361 78.125 36.2673 77.8184 35.3464L77.3187 33.8454L74.2237 34.8757L73.6268 33.0824ZM78.8862 33.3236L79.3858 34.8246C79.5244 35.2408 79.7471 35.5257 80.054 35.6793C80.3727 35.8388 80.7224 35.8552 81.1032 35.7284C81.4752 35.6046 81.735 35.3804 81.8827 35.0558C82.0333 34.74 82.0423 34.3829 81.9097 33.9844L81.41 32.4834L78.8862 33.3236Z" fill="#FF7CE2"/>
<path d="M75.9164 40.7957L85.1388 40.2256L85.5222 46.4298L83.8175 46.5352L83.5506 42.2174L81.6782 42.3331L81.8742 45.5051L80.2673 45.6044L80.0713 42.4325L77.7377 42.5767L78.015 47.0621L76.3102 47.1675L75.9164 40.7957Z" fill="#FF7CE2"/>
<path d="M72.2197 49.1477C70.8588 45.9339 68.9504 44.1641 66.8461 44.1641C64.7419 44.1641 62.8335 45.9339 61.4726 49.1477C60.2201 52.1056 59.5303 56.018 59.5303 60.1641C59.5303 64.3101 60.2201 68.2225 61.4726 71.1804C62.8335 74.3942 64.7419 76.1641 66.8461 76.1641C68.9504 76.1641 70.8588 74.3942 72.2197 71.1804C73.4723 68.2225 74.1621 64.3101 74.1621 60.1641C74.1621 56.018 73.4723 52.1056 72.2197 49.1477ZM66.8461 74.2891C65.5618 74.2891 64.2326 72.8895 63.1992 70.4492C62.3965 68.5537 61.8443 66.2147 61.5813 63.6573C62.1593 63.9816 62.825 64.1675 63.5336 64.1675C65.7411 64.1675 67.537 62.3716 67.537 60.1641C67.537 57.9565 65.7411 56.1606 63.5336 56.1606C62.825 56.1606 62.1592 56.3465 61.5811 56.6709C62.2415 50.2618 64.6506 46.0391 66.8461 46.0391C68.1305 46.0391 69.4597 47.4386 70.4931 49.8789C71.65 52.6108 72.2871 56.2634 72.2871 60.1641C72.2871 68.4882 69.4196 74.2891 66.8461 74.2891ZM61.4053 60.1641C61.4053 58.9905 62.36 58.0356 63.5336 58.0356C64.7073 58.0356 65.6621 58.9904 65.6621 60.1641C65.6621 61.3377 64.7073 62.2925 63.5336 62.2925C62.36 62.2925 61.4053 61.3376 61.4053 60.1641Z" fill="#FF7CE2"/>
<path d="M49.478 44.1641C47.3738 44.1641 45.4654 45.9339 44.1045 49.1477C42.8519 52.1056 42.1621 56.018 42.1621 60.1641C42.1621 64.3101 42.8519 68.2225 44.1045 71.1804C45.4654 74.3942 47.3738 76.1641 49.478 76.1641C51.5824 76.1641 53.4907 74.3942 54.8516 71.1804C56.1042 68.2225 56.794 64.3101 56.794 60.1641C56.794 56.018 56.1042 52.1056 54.8515 49.1477C53.4907 45.9339 51.5824 44.1641 49.478 44.1641ZM49.478 74.2891C48.1937 74.2891 46.8645 72.8895 45.8311 70.4492C45.0284 68.5537 44.4762 66.2146 44.2132 63.6573C44.7912 63.9816 45.4569 64.1675 46.1655 64.1675C48.373 64.1675 50.1689 62.3716 50.1689 60.1641C50.1689 57.9565 48.373 56.1606 46.1655 56.1606C45.4569 56.1606 44.7911 56.3465 44.213 56.6709C44.8734 50.2618 47.2825 46.0391 49.478 46.0391C50.7624 46.0391 52.0917 47.4386 53.125 49.8789C54.2819 52.6108 54.919 56.2634 54.919 60.1641C54.919 68.4882 52.0515 74.2891 49.478 74.2891ZM44.0371 60.1641C44.0371 58.9905 44.9919 58.0356 46.1655 58.0356C47.3392 58.0356 48.2939 58.9905 48.2939 60.1641C48.2939 61.3376 47.3391 62.2925 46.1655 62.2925C44.9919 62.2925 44.0371 61.3376 44.0371 60.1641Z" fill="#FF7CE2"/>
</svg>

<svg width="92" height="92" fill="none" xmlns="http://www.w3.org/2000/svg"><path d="M0 46C0 20.595 20.595 0 46 0s46 20.595 46 46-20.595 46-46 46S0 71.405 0 46z" fill="#FFD7F6"/><path d="M35.635 74.786l-4.191 8.234-2.695-1.371c-1.323-.653-2.212-1.582-2.667-2.787-.459-1.197-.373-2.394.258-3.592.593-1.206 1.519-1.986 2.778-2.34 1.259-.355 2.533-.193 3.822.484l2.695 1.372zm-2.46.665l-.997-.508c-.832-.424-1.622-.528-2.371-.312-.753.224-1.33.732-1.733 1.522-.406.798-.476 1.553-.21 2.265.266.711.823 1.283 1.672 1.715l.998.508 2.642-5.19zm-6.499-5.902l-5.965 7.056-1.444-1.22 5.966-7.056 1.443 1.22zm-13.362-.722l-1.32-1.67 9.933-2.606.39.494L17.5 74.12l-1.328-1.68 2.96-5.285-5.817 1.672zm5.485-8.417l-8.483 3.663-2.465-5.706 1.568-.677 1.715 3.971 1.723-.743L11.597 58l1.478-.638 1.26 2.917 2.146-.926-1.781-4.126 1.568-.677 2.53 5.86zm-4.017-15.58l.278 2.11-2.922 2.799.181 1.374 3.234-.426.247 1.874-9.16 1.207-.454-3.443c-.127-.962.042-1.79.506-2.481.465-.692 1.136-1.096 2.015-1.212.574-.075 1.111 0 1.611.226.49.218.894.565 1.21 1.04l3.254-3.069zm-6.738 6.846l2.624-.345-.207-1.569c-.057-.435-.222-.757-.494-.966-.274-.218-.61-.3-1.007-.248-.389.051-.687.222-.893.513-.208.281-.284.63-.23 1.047l.207 1.568zm5.002-6.824l-.78-1.43c.982-.516 1.536-1.2 1.66-2.049.06-.406.02-.737-.121-.994a.917.917 0 00-.697-.456c-.259-.039-.469.01-.63.147-.171.135-.397.418-.677.849l-.589.918c-.873 1.38-1.859 1.99-2.958 1.828-.775-.115-1.357-.493-1.743-1.135-.396-.643-.529-1.403-.4-2.28.101-.684.346-1.26.737-1.731a3.3 3.3 0 011.44-1.033l.795 1.419c-.771.367-1.208.897-1.31 1.59-.049.332-.01.616.115.852a.773.773 0 00.604.414.777.777 0 00.6-.138c.162-.136.366-.394.61-.773l.61-.972c.467-.733.934-1.249 1.403-1.548.46-.3.994-.405 1.603-.315.822.12 1.443.519 1.862 1.194.41.674.546 1.477.409 2.41a4.098 4.098 0 01-.846 1.997 4.044 4.044 0 01-1.697 1.236zm3.407-8.522L7.97 32.669l2.464-5.707 1.568.677-1.715 3.972 1.723.743 1.26-2.917 1.478.638-1.26 2.918 2.146.927 1.782-4.126 1.568.677-2.53 5.86zm1.797-13.1c-.923-.952-1.352-2.106-1.286-3.465.06-1.364.588-2.498 1.585-3.4.638-.602 1.356-.997 2.154-1.185a4.374 4.374 0 012.385.06l-.347 1.713c-1.193-.3-2.19-.07-2.991.685-.625.59-.946 1.29-.963 2.101-.01.805.286 1.527.888 2.165.602.639 1.302.972 2.1 1.002.805.024 1.52-.26 2.144-.849.802-.755 1.087-1.737.859-2.946l1.73-.247a4.374 4.374 0 01-.06 2.386c-.247.785-.693 1.481-1.338 2.09-.965.949-2.127 1.417-3.487 1.404-1.36-.026-2.484-.531-3.373-1.514zm10.46-3.323l-3.913-8.37 1.712-.8 1.5 3.208 3.703-1.732-1.5-3.208 1.712-.8 3.914 8.37-1.712.8-1.69-3.614-3.703 1.731 1.69 3.615-1.712.8zm14.273-4.691l-.688-1.116-3.74.551-.336 1.267-2.008.296 2.713-9.91.624-.092 5.444 8.707-2.009.296zm-1.565-2.557l-1.674-2.91-.764 3.269 2.438-.36zm13.066 3.391l-2.11-.279-1.947-3.547-1.374-.18-.426 3.233-1.874-.246L47.96 5.87l3.442.453c.963.127 1.718.504 2.266 1.132.548.627.764 1.38.648 2.26a2.916 2.916 0 01-.635 1.498 2.81 2.81 0 01-1.319.9l2.122 3.936zm-4.868-8.282l-.345 2.624 1.568.206c.435.058.788-.018 1.06-.227.282-.208.45-.51.502-.908.051-.39-.037-.72-.265-.995-.218-.274-.535-.438-.951-.493l-1.569-.207zm7.231 9.502l2.882-6.96L57 9.18l.654-1.578 7.217 2.99-.653 1.578-2.742-1.136-2.883 6.959-1.746-.723zm9.07 5.584l5.089-5.553-2.178-1.996 1.154-1.26 5.76 5.278-1.154 1.26-2.189-2.006-5.088 5.553-1.394-1.276zm15.155 4.296l-6.424.443-3.034 2.01-1.044-1.576 3.023-2.002 2.918-5.761 1.16 1.75-1.93 3.73 4.18-.333 1.151 1.739zm-7.445 5.932l8.767-2.918 1.096 3.294c.307.921.298 1.765-.027 2.532-.325.768-.908 1.291-1.75 1.572-.832.277-1.613.207-2.341-.21-.73-.416-1.247-1.085-1.554-2.006l-.5-1.5-3.094 1.03-.597-1.794zm5.26.242l.499 1.5c.138.417.361.702.668.855.319.16.668.176 1.05.05.371-.124.631-.349.779-.673.15-.316.16-.673.027-1.072l-.5-1.5-2.524.84zm-2.971 7.472l9.223-.57.383 6.204-1.705.105-.266-4.318-1.873.116.196 3.172-1.607.1-.196-3.172-2.333.144.277 4.485-1.705.105-.394-6.371zm-3.696 8.352c-1.361-3.214-3.27-4.984-5.374-4.984-2.104 0-4.013 1.77-5.373 4.984-1.253 2.958-1.943 6.87-1.943 11.016s.69 8.058 1.943 11.016c1.36 3.214 3.269 4.984 5.373 4.984s4.013-1.77 5.374-4.984c1.252-2.958 1.942-6.87 1.942-11.016s-.69-8.058-1.942-11.016zm-5.374 25.141c-1.284 0-2.613-1.4-3.647-3.84-.802-1.895-1.355-4.234-1.618-6.792.578.325 1.244.51 1.953.51a4.008 4.008 0 004.003-4.003 4.008 4.008 0 00-4.003-4.003c-.709 0-1.375.185-1.953.51.66-6.41 3.07-10.632 5.265-10.632 1.284 0 2.614 1.4 3.647 3.84 1.157 2.732 1.794 6.384 1.794 10.285 0 8.324-2.867 14.125-5.44 14.125zm-5.44-14.125a2.13 2.13 0 012.128-2.128 2.13 2.13 0 012.128 2.128 2.13 2.13 0 01-2.128 2.128 2.13 2.13 0 01-2.129-2.128zm-11.928-16c-2.104 0-4.013 1.77-5.373 4.984-1.253 2.958-1.943 6.87-1.943 11.016s.69 8.058 1.943 11.016c1.36 3.214 3.269 4.984 5.373 4.984s4.013-1.77 5.374-4.984c1.252-2.958 1.942-6.87 1.942-11.016s-.69-8.058-1.942-11.016c-1.361-3.214-3.27-4.984-5.374-4.984zm0 30.125c-1.284 0-2.614-1.4-3.647-3.84-.803-1.895-1.355-4.234-1.618-6.792.578.325 1.244.51 1.953.51a4.008 4.008 0 004.003-4.003 4.008 4.008 0 00-4.003-4.003c-.71 0-1.375.185-1.953.51.66-6.41 3.07-10.632 5.265-10.632 1.284 0 2.614 1.4 3.647 3.84 1.157 2.732 1.794 6.384 1.794 10.285 0 8.324-2.867 14.125-5.441 14.125zm-5.44-14.125a2.13 2.13 0 012.128-2.128 2.13 2.13 0 012.128 2.128 2.13 2.13 0 01-2.128 2.128 2.13 2.13 0 01-2.129-2.128z" fill="#FF7CE2"/></svg>
